src/components/00-materials/images-raw/P&C/Caravan.svg

<svg xmlns="http://www.w3.org/2000/svg" viewBox="0 0 96 96"><defs><style>.cls-2{fill:none;stroke:#00008f;stroke-linecap:round;stroke-linejoin:round;stroke-width:2px}</style></defs><g id="Layer_2" data-name="Layer 2"><g id="icons"><path fill="#fff" d="M0 0h96v96H0z"/><path class="cls-2" d="M15.78 28.73h30.27A1.93 1.93 0 0 1 48 30.66V46.4a2.24 2.24 0 0 1-2.24 2.24H15.38a2.52 2.52 0 0 1-2.52-2.52V31.64a2.91 2.91 0 0 1 2.92-2.91zM55 28.73h12.39a4.11 4.11 0 0 1 4.11 4.11v26.87H55v-31 .02z"/><path class="cls-2" d="M41.2 66.71h44.47v-3H93v-5h-7.33v-12.5a25.39 25.39 0 0 0-25.39-25.39H14.4A7.4 7.4 0 0 0 7 28.23v38.48h16"/><circle class="cls-2" cx="32.02" cy="66.73" r="4"/><circle class="cls-2" cx="32.08" cy="66.75" r="9"/></g></g></svg>

<svg xmlns="http://www.w3.org/2000/svg" viewBox="0 0 96 96"><defs><style>.cls-1{fill:#fff;}.cls-2{fill:none;stroke:#00008f;stroke-linecap:round;stroke-linejoin:round;stroke-width:2px;}</style></defs><title>Caravan</title><g id="Layer_2" data-name="Layer 2"><g id="icons"><rect class="cls-1" width="96" height="96"/><path class="cls-2" d="M15.78,28.73H46.05A1.93,1.93,0,0,1,48,30.66V46.4a2.24,2.24,0,0,1-2.24,2.24H15.38a2.52,2.52,0,0,1-2.52-2.52V31.64A2.91,2.91,0,0,1,15.78,28.73Z"/><path class="cls-2" d="M55,28.73H67.39a4.11,4.11,0,0,1,4.11,4.11V59.71a0,0,0,0,1,0,0H55a0,0,0,0,1,0,0v-31A0,0,0,0,1,55,28.73Z"/><path class="cls-2" d="M41.2,66.71H85.67v-3H93v-5H85.67V46.21A25.39,25.39,0,0,0,60.28,20.82H14.4A7.4,7.4,0,0,0,7,28.23V66.71H23"/><circle class="cls-2" cx="32.02" cy="66.73" r="4"/><circle class="cls-2" cx="32.08" cy="66.75" r="9"/></g></g></svg>
